; generated by Slic3r 1.37.1-prusa3d on 2018-04-28 at 20:17:11

; 

; external perimeters extrusion width = 0.45mm
; perimeters extrusion width = 0.45mm
; infill extrusion width = 0.45mm
; solid infill extrusion width = 0.45mm
; top infill extrusion width = 0.40mm
; first layer extrusion width = 0.42mm

M107
M115 U3.0.9 ; tell printer latest fw version
M83  ; extruder relative mode
M104 S215 ; set extruder temp
M140 S55 ; set bed temp
M190 S55 ; wait for bed temp
M109 S215 ; wait for extruder temp
G28 W ; home all without mesh bed level
G80 ; mesh bed leveling
G1 Y-3.0 F1000.0 ; go outside pritn area
G1 X60.0 E9.0  F1000.0 ; intro line
G1 X100.0 E12.5  F1000.0 ; intro line
; Filament gcode

G21 ; set units to millimeters
G90 ; use absolute coordinates
M83 ; use relative distances for extrusion
G1 E-0.80000 F2100.00000
G1 Z0.200 F7200.000
G1 X72.578 Y48.404 F7200.000
G1 E0.80000 F2100.00000
M204 S1000
G1 F2100
G1 X73.017 Y47.678 E0.02661
G1 X73.384 Y47.341 E0.01562
G1 X73.813 Y47.088 E0.01562
G1 X74.285 Y46.929 E0.01562
G1 X74.780 Y46.873 E0.01562
G1 X175.204 Y46.873 E3.14872
G1 X176.102 Y47.051 E0.02872
G1 X176.870 Y47.558 E0.02884
G1 X177.385 Y48.315 E0.02872
G1 X177.577 Y49.215 E0.02884
G1 X177.577 Y160.761 E3.49747
G1 X177.422 Y161.596 E0.02661
G1 X176.983 Y162.322 E0.02661
G1 X176.613 Y162.661 E0.01574
G1 X176.180 Y162.916 E0.01574
G1 X175.704 Y163.073 E0.01574
G1 X175.205 Y163.127 E0.01574
G1 X74.789 Y163.127 E3.14848
G1 X73.954 Y162.972 E0.02661
G1 X73.228 Y162.533 E0.02661
G1 X72.889 Y162.163 E0.01574
G1 X72.634 Y161.730 E0.01574
G1 X72.477 Y161.254 E0.01574
G1 X72.423 Y160.755 E0.01574
G1 X72.423 Y49.239 E3.49652
G1 X72.567 Y48.463 E0.02473
G1 F5760
G1 X73.017 Y47.678 E-0.31347
G1 F5760
G1 X73.384 Y47.341 E-0.17251
G1 F5760
G1 X73.813 Y47.088 E-0.17251
G1 F5760
G1 X74.091 Y46.995 E-0.10151
G1 E-0.04000 F2100.00000
G1 X162.186 Y127.786 F7200.000
G1 E0.80000 F2100.00000
G1 F1680
G1 X173.914 Y127.786 E0.36773
G1 X173.914 Y154.714 E0.84432
G1 X162.186 Y154.714 E0.36773
G1 X162.186 Y127.846 E0.84244
G1 X162.563 Y128.163 F7200.000
G1 F1680
G1 X173.537 Y128.163 E0.34409
G1 X173.537 Y154.337 E0.82067
G1 X162.563 Y154.337 E0.34409
G1 X162.563 Y128.223 E0.81879
G1 X162.940 Y128.540 F7200.000
G1 F1260
G1 X173.160 Y128.540 E0.32044
G1 X173.160 Y153.960 E0.79703
G1 X162.940 Y153.960 E0.32044
G1 X162.940 Y128.600 E0.79514
G1 X162.889 Y128.143 F7200.000
G1 F5760
G1 X165.134 Y128.587 E-0.76000
G1 E-0.04000 F2100.00000
G1 X149.886 Y127.786 F7200.000
G1 E0.80000 F2100.00000
G1 F1680
G1 X161.614 Y127.786 E0.36773
G1 X161.614 Y154.714 E0.84432
G1 X149.886 Y154.714 E0.36773
G1 X149.886 Y127.846 E0.84244
G1 X150.263 Y128.163 F7200.000
G1 F1680
G1 X161.237 Y128.163 E0.34409
G1 X161.237 Y154.337 E0.82067
G1 X150.263 Y154.337 E0.34409
G1 X150.263 Y128.223 E0.81879
G1 X150.640 Y128.540 F7200.000
G1 F1260
G1 X160.860 Y128.540 E0.32044
G1 X160.860 Y153.960 E0.79703
G1 X150.640 Y153.960 E0.32044
G1 X150.640 Y128.600 E0.79514
G1 X150.589 Y128.143 F7200.000
G1 F5760
G1 X152.834 Y128.587 E-0.76000
G1 E-0.04000 F2100.00000
G1 X137.586 Y127.786 F7200.000
G1 E0.80000 F2100.00000
G1 F1680
G1 X149.314 Y127.786 E0.36773
G1 X149.314 Y154.714 E0.84432
G1 X137.586 Y154.714 E0.36773
G1 X137.586 Y127.846 E0.84244
G1 X137.963 Y128.163 F7200.000
G1 F1680
G1 X148.937 Y128.163 E0.34409
G1 X148.937 Y154.337 E0.82067
G1 X137.963 Y154.337 E0.34409
G1 X137.963 Y128.223 E0.81879
G1 X138.340 Y128.540 F7200.000
G1 F1260
G1 X148.560 Y128.540 E0.32044
G1 X148.560 Y153.960 E0.79703
G1 X138.340 Y153.960 E0.32044
G1 X138.340 Y128.600 E0.79514
G1 X138.289 Y128.143 F7200.000
G1 F5760
G1 X140.534 Y128.587 E-0.76000
G1 E-0.04000 F2100.00000
G1 X125.286 Y127.786 F7200.000
G1 E0.80000 F2100.00000
G1 F1680
G1 X137.014 Y127.786 E0.36773
G1 X137.014 Y154.714 E0.84432
G1 X125.286 Y154.714 E0.36773
G1 X125.286 Y127.846 E0.84244
G1 X125.663 Y128.163 F7200.000
G1 F1680
G1 X136.637 Y128.163 E0.34409
G1 X136.637 Y154.337 E0.82067
G1 X125.663 Y154.337 E0.34409
G1 X125.663 Y128.223 E0.81879
G1 X126.040 Y128.540 F7200.000
G1 F1260
G1 X136.260 Y128.540 E0.32044
G1 X136.260 Y153.960 E0.79703
G1 X126.040 Y153.960 E0.32044
G1 X126.040 Y128.600 E0.79514
G1 X125.989 Y128.143 F7200.000
G1 F5760
G1 X128.234 Y128.587 E-0.76000
G1 E-0.04000 F2100.00000
G1 X112.986 Y127.786 F7200.000
G1 E0.80000 F2100.00000
G1 F1680
G1 X124.714 Y127.786 E0.36773
G1 X124.714 Y154.714 E0.84432
G1 X112.986 Y154.714 E0.36773
G1 X112.986 Y127.846 E0.84244
G1 X113.363 Y128.163 F7200.000
G1 F1680
G1 X124.337 Y128.163 E0.34409
G1 X124.337 Y154.337 E0.82067
G1 X113.363 Y154.337 E0.34409
G1 X113.363 Y128.223 E0.81879
G1 X113.740 Y128.540 F7200.000
G1 F1260
G1 X123.960 Y128.540 E0.32044
G1 X123.960 Y153.960 E0.79703
G1 X113.740 Y153.960 E0.32044
G1 X113.740 Y128.600 E0.79514
G1 X113.689 Y128.143 F7200.000
G1 F5760
G1 X115.934 Y128.587 E-0.76000
G1 E-0.04000 F2100.00000
G1 X100.686 Y127.786 F7200.000
G1 E0.80000 F2100.00000
G1 F1680
G1 X112.414 Y127.786 E0.36773
G1 X112.414 Y154.714 E0.84432
G1 X100.686 Y154.714 E0.36773
G1 X100.686 Y127.846 E0.84244
G1 X101.063 Y128.163 F7200.000
G1 F1680
G1 X112.037 Y128.163 E0.34409
G1 X112.037 Y154.337 E0.82067
G1 X101.063 Y154.337 E0.34409
G1 X101.063 Y128.223 E0.81879
G1 X101.440 Y128.540 F7200.000
G1 F1260
G1 X111.660 Y128.540 E0.32044
G1 X111.660 Y153.960 E0.79703
G1 X101.440 Y153.960 E0.32044
G1 X101.440 Y128.600 E0.79514
G1 X101.389 Y128.143 F7200.000
G1 F5760
G1 X103.634 Y128.587 E-0.76000
G1 E-0.04000 F2100.00000
G1 X88.386 Y127.786 F7200.000
G1 E0.80000 F2100.00000
G1 F1680
G1 X100.114 Y127.786 E0.36773
G1 X100.114 Y154.714 E0.84432
G1 X88.386 Y154.714 E0.36773
G1 X88.386 Y127.846 E0.84244
G1 X88.763 Y128.163 F7200.000
G1 F1680
G1 X99.737 Y128.163 E0.34409
G1 X99.737 Y154.337 E0.82067
G1 X88.763 Y154.337 E0.34409
G1 X88.763 Y128.223 E0.81879
G1 X89.140 Y128.540 F7200.000
G1 F1260
G1 X99.360 Y128.540 E0.32044
G1 X99.360 Y153.960 E0.79703
G1 X89.140 Y153.960 E0.32044
G1 X89.140 Y128.600 E0.79514
G1 X89.089 Y128.143 F7200.000
G1 F5760
G1 X91.334 Y128.587 E-0.76000
G1 E-0.04000 F2100.00000
G1 X76.086 Y127.786 F7200.000
G1 E0.80000 F2100.00000
G1 F1680
G1 X87.814 Y127.786 E0.36773
G1 X87.814 Y154.714 E0.84432
G1 X76.086 Y154.714 E0.36773
G1 X76.086 Y127.846 E0.84244
G1 X76.463 Y128.163 F7200.000
G1 F1680
G1 X87.437 Y128.163 E0.34409
G1 X87.437 Y154.337 E0.82067
G1 X76.463 Y154.337 E0.34409
G1 X76.463 Y128.223 E0.81879
G1 X76.840 Y128.540 F7200.000
G1 F1260
G1 X87.060 Y128.540 E0.32044
G1 X87.060 Y153.960 E0.79703
G1 X76.840 Y153.960 E0.32044
G1 X76.840 Y128.600 E0.79514
G1 X76.789 Y128.143 F7200.000
G1 F5760
G1 X79.034 Y128.587 E-0.76000
G1 E-0.04000 F2100.00000
G1 X76.086 Y68.036 F7200.000
G1 E0.80000 F2100.00000
G1 F1680
G1 X87.814 Y68.036 E0.36773
G1 X87.814 Y123.714 E1.74575
G1 X76.086 Y123.714 E0.36773
G1 X76.086 Y68.096 E1.74387
G1 X76.463 Y68.413 F7200.000
G1 F1680
G1 X87.437 Y68.413 E0.34409
G1 X87.437 Y123.337 E1.72211
G1 X76.463 Y123.337 E0.34409
G1 X76.463 Y68.473 E1.72023
G1 X76.840 Y68.790 F7200.000
G1 F1260
G1 X87.060 Y68.790 E0.32044
G1 X87.060 Y122.960 E1.69846
G1 X76.840 Y122.960 E0.32044
G1 X76.840 Y68.850 E1.69658
G1 X76.815 Y68.391 F7200.000
G1 F5760
G1 X79.034 Y68.837 E-0.76000
G1 E-0.04000 F2100.00000
G1 X88.386 Y68.036 F7200.000
G1 E0.80000 F2100.00000
G1 F1680
G1 X100.114 Y68.036 E0.36773
G1 X100.114 Y123.714 E1.74575
G1 X88.386 Y123.714 E0.36773
G1 X88.386 Y68.096 E1.74387
G1 X88.763 Y68.413 F7200.000
G1 F1680
G1 X99.737 Y68.413 E0.34409
G1 X99.737 Y123.337 E1.72211
G1 X88.763 Y123.337 E0.34409
G1 X88.763 Y68.473 E1.72023
G1 X89.140 Y68.790 F7200.000
G1 F1260
G1 X99.360 Y68.790 E0.32044
G1 X99.360 Y122.960 E1.69846
G1 X89.140 Y122.960 E0.32044
G1 X89.140 Y68.850 E1.69658
G1 X89.115 Y68.391 F7200.000
G1 F5760
G1 X91.334 Y68.837 E-0.76000
G1 E-0.04000 F2100.00000
G1 X100.686 Y68.036 F7200.000
G1 E0.80000 F2100.00000
G1 F1680
G1 X112.414 Y68.036 E0.36773
G1 X112.414 Y123.714 E1.74575
G1 X100.686 Y123.714 E0.36773
G1 X100.686 Y68.096 E1.74387
G1 X101.063 Y68.413 F7200.000
G1 F1680
G1 X112.037 Y68.413 E0.34409
G1 X112.037 Y123.337 E1.72211
G1 X101.063 Y123.337 E0.34409
G1 X101.063 Y68.473 E1.72023
G1 X101.440 Y68.790 F7200.000
G1 F1260
G1 X111.660 Y68.790 E0.32044
G1 X111.660 Y122.960 E1.69846
G1 X101.440 Y122.960 E0.32044
G1 X101.440 Y68.850 E1.69658
G1 X101.415 Y68.391 F7200.000
G1 F5760
G1 X103.634 Y68.837 E-0.76000
G1 E-0.04000 F2100.00000
G1 X112.986 Y68.036 F7200.000
G1 E0.80000 F2100.00000
G1 F1680
G1 X124.714 Y68.036 E0.36773
G1 X124.714 Y123.714 E1.74575
G1 X112.986 Y123.714 E0.36773
G1 X112.986 Y68.096 E1.74387
G1 X113.363 Y68.413 F7200.000
G1 F1680
G1 X124.337 Y68.413 E0.34409
G1 X124.337 Y123.337 E1.72211
G1 X113.363 Y123.337 E0.34409
G1 X113.363 Y68.473 E1.72023
G1 X113.740 Y68.790 F7200.000
G1 F1260
G1 X123.960 Y68.790 E0.32044
G1 X123.960 Y122.960 E1.69846
G1 X113.740 Y122.960 E0.32044
G1 X113.740 Y68.850 E1.69658
G1 X113.715 Y68.391 F7200.000
G1 F5760
G1 X115.934 Y68.837 E-0.76000
G1 E-0.04000 F2100.00000
G1 X125.286 Y68.036 F7200.000
G1 E0.80000 F2100.00000
G1 F1680
G1 X137.014 Y68.036 E0.36773
G1 X137.014 Y123.714 E1.74575
G1 X125.286 Y123.714 E0.36773
G1 X125.286 Y68.096 E1.74387
G1 X125.663 Y68.413 F7200.000
G1 F1680
G1 X136.637 Y68.413 E0.34409
G1 X136.637 Y123.337 E1.72211
G1 X125.663 Y123.337 E0.34409
G1 X125.663 Y68.473 E1.72023
G1 X126.040 Y68.790 F7200.000
G1 F1260
G1 X136.260 Y68.790 E0.32044
G1 X136.260 Y122.960 E1.69846
G1 X126.040 Y122.960 E0.32044
G1 X126.040 Y68.850 E1.69658
G1 X126.015 Y68.391 F7200.000
G1 F5760
G1 X128.234 Y68.837 E-0.76000
G1 E-0.04000 F2100.00000
G1 X137.586 Y68.036 F7200.000
G1 E0.80000 F2100.00000
G1 F1680
G1 X149.314 Y68.036 E0.36773
G1 X149.314 Y123.714 E1.74575
G1 X137.586 Y123.714 E0.36773
G1 X137.586 Y68.096 E1.74387
G1 X137.963 Y68.413 F7200.000
G1 F1680
G1 X148.937 Y68.413 E0.34409
G1 X148.937 Y123.337 E1.72211
G1 X137.963 Y123.337 E0.34409
G1 X137.963 Y68.473 E1.72023
G1 X138.340 Y68.790 F7200.000
G1 F1260
G1 X148.560 Y68.790 E0.32044
G1 X148.560 Y122.960 E1.69846
G1 X138.340 Y122.960 E0.32044
G1 X138.340 Y68.850 E1.69658
G1 X138.315 Y68.391 F7200.000
G1 F5760
G1 X140.534 Y68.837 E-0.76000
G1 E-0.04000 F2100.00000
G1 X149.886 Y68.036 F7200.000
G1 E0.80000 F2100.00000
G1 F1680
G1 X161.614 Y68.036 E0.36773
G1 X161.614 Y123.714 E1.74575
G1 X149.886 Y123.714 E0.36773
G1 X149.886 Y68.096 E1.74387
G1 X150.263 Y68.413 F7200.000
G1 F1680
G1 X161.237 Y68.413 E0.34409
G1 X161.237 Y123.337 E1.72211
G1 X150.263 Y123.337 E0.34409
G1 X150.263 Y68.473 E1.72023
G1 X150.640 Y68.790 F7200.000
G1 F1260
G1 X160.860 Y68.790 E0.32044
G1 X160.860 Y122.960 E1.69846
G1 X150.640 Y122.960 E0.32044
G1 X150.640 Y68.850 E1.69658
G1 X150.615 Y68.391 F7200.000
G1 F5760
G1 X152.834 Y68.837 E-0.76000
G1 E-0.04000 F2100.00000
G1 X162.186 Y68.036 F7200.000
G1 E0.80000 F2100.00000
G1 F1680
G1 X173.914 Y68.036 E0.36773
G1 X173.914 Y123.714 E1.74575
G1 X162.186 Y123.714 E0.36773
G1 X162.186 Y68.096 E1.74387
G1 X162.563 Y68.413 F7200.000
G1 F1680
G1 X173.537 Y68.413 E0.34409
G1 X173.537 Y123.337 E1.72211
G1 X162.563 Y123.337 E0.34409
G1 X162.563 Y68.473 E1.72023
G1 X162.940 Y68.790 F7200.000
G1 F1260
G1 X173.160 Y68.790 E0.32044
G1 X173.160 Y122.960 E1.69846
G1 X162.940 Y122.960 E0.32044
G1 X162.940 Y68.850 E1.69658
G1 X162.915 Y68.391 F7200.000
G1 F5760
G1 X165.134 Y68.837 E-0.76000
G1 E-0.04000 F2100.00000
G1 X174.236 Y50.214 F7200.000
G1 E0.80000 F2100.00000
G1 F1680
G1 X174.236 Y159.786 E3.43554
G1 X75.764 Y159.786 E3.08751
G1 X75.764 Y50.214 E3.43554
G1 X174.176 Y50.214 E3.08563
G1 X174.613 Y49.837 F7200.000
G1 F1680
G1 X174.613 Y160.163 E3.45919
G1 X75.387 Y160.163 E3.11116
G1 X75.387 Y49.837 E3.45919
G1 X174.553 Y49.837 E3.10928
G1 X174.990 Y49.460 F7200.000
G1 F1260
G1 X174.990 Y160.540 E3.48284
G1 X75.010 Y160.540 E3.13480
G1 X75.010 Y49.460 E3.48284
G1 X174.930 Y49.460 E3.13292
G1 X174.893 Y49.848 F7200.000
G1 F5760
G1 X174.931 Y51.654 E-0.76000
G1 E-0.04000 F2100.00000
G1 X174.123 Y51.091 F7200.000
G1 E0.80000 F2100.00000
G1 F1680
G1 X173.529 Y50.497 E0.02638
G1 X172.995 Y50.497 E0.01678
G1 X173.953 Y51.455 E0.04257
G1 X173.953 Y51.990 E0.01678
G1 X172.460 Y50.497 E0.06630
G1 X171.926 Y50.497 E0.01678
G1 X173.953 Y52.524 E0.09002
G1 X173.953 Y53.058 E0.01678
G1 X171.392 Y50.497 E0.11375
G1 X170.858 Y50.497 E0.01678
G1 X173.953 Y53.592 E0.13748
G1 X173.953 Y54.126 E0.01678
G1 X170.324 Y50.497 E0.16120
G1 X169.790 Y50.497 E0.01678
G1 X173.953 Y54.660 E0.18493
G1 X173.953 Y55.195 E0.01678
G1 X169.255 Y50.497 E0.20866
G1 X168.721 Y50.497 E0.01678
G1 X173.953 Y55.729 E0.23238
G1 X173.953 Y56.263 E0.01678
G1 X168.187 Y50.497 E0.25611
G1 X167.653 Y50.497 E0.01678
G1 X173.953 Y56.797 E0.27984
G1 X173.953 Y57.331 E0.01678
G1 X167.119 Y50.497 E0.30356
G1 X166.584 Y50.497 E0.01678
G1 X173.953 Y57.866 E0.32729
G1 X173.953 Y58.400 E0.01678
G1 X166.050 Y50.497 E0.35102
G1 X165.516 Y50.497 E0.01678
G1 X173.953 Y58.934 E0.37474
G1 X173.953 Y59.468 E0.01678
G1 X164.982 Y50.497 E0.39847
G1 X164.448 Y50.497 E0.01678
G1 X173.953 Y60.002 E0.42220
G1 X173.953 Y60.536 E0.01678
G1 X163.914 Y50.497 E0.44592
G1 X163.379 Y50.497 E0.01678
G1 X173.953 Y61.071 E0.46965
G1 X173.953 Y61.605 E0.01678
G1 X162.845 Y50.497 E0.49337
G1 X162.311 Y50.497 E0.01678
G1 X173.953 Y62.139 E0.51710
G1 X173.953 Y62.673 E0.01678
G1 X161.777 Y50.497 E0.54083
G1 X161.243 Y50.497 E0.01678
G1 X173.953 Y63.207 E0.56455
G1 X173.953 Y63.741 E0.01678
G1 X160.709 Y50.497 E0.58828
G1 X160.174 Y50.497 E0.01678
G1 X173.953 Y64.276 E0.61201
G1 X173.953 Y64.810 E0.01678
G1 X159.640 Y50.497 E0.63573
G1 X159.106 Y50.497 E0.01678
G1 X173.953 Y65.344 E0.65946
G1 X173.953 Y65.878 E0.01678
G1 X158.572 Y50.497 E0.68319
G1 X158.038 Y50.497 E0.01678
G1 X173.953 Y66.412 E0.70691
G1 X173.953 Y66.947 E0.01678
G1 X157.503 Y50.497 E0.73064
G1 X156.969 Y50.497 E0.01678
G1 X173.953 Y67.481 E0.75437
G1 X173.953 Y67.753 E0.00855
G1 X173.691 Y67.753 E0.00822
G1 X156.435 Y50.497 E0.76646
G1 X155.901 Y50.497 E0.01678
G1 X173.157 Y67.753 E0.76646
G1 X172.623 Y67.753 E0.01678
G1 X155.367 Y50.497 E0.76646
G1 X154.833 Y50.497 E0.01678
G1 X172.089 Y67.753 E0.76646
G1 X171.555 Y67.753 E0.01678
G1 X154.298 Y50.497 E0.76646
G1 X153.764 Y50.497 E0.01678
G1 X171.020 Y67.753 E0.76646
G1 X170.486 Y67.753 E0.01678
G1 X153.230 Y50.497 E0.76646
G1 X152.696 Y50.497 E0.01678
G1 X169.952 Y67.753 E0.76646
G1 X169.418 Y67.753 E0.01678
G1 X152.162 Y50.497 E0.76646
G1 X151.628 Y50.497 E0.01678
G1 X168.884 Y67.753 E0.76646
G1 X168.349 Y67.753 E0.01678
G1 X151.093 Y50.497 E0.76646
G1 X150.559 Y50.497 E0.01678
G1 X167.815 Y67.753 E0.76646
G1 X167.281 Y67.753 E0.01678
G1 X150.025 Y50.497 E0.76646
G1 X149.491 Y50.497 E0.01678
G1 X166.747 Y67.753 E0.76646
G1 X166.213 Y67.753 E0.01678
G1 X148.957 Y50.497 E0.76646
G1 X148.422 Y50.497 E0.01678
G1 X165.679 Y67.753 E0.76646
G1 X165.144 Y67.753 E0.01678
G1 X147.888 Y50.497 E0.76646
G1 X147.354 Y50.497 E0.01678
G1 X164.610 Y67.753 E0.76646
G1 X164.076 Y67.753 E0.01678
G1 X146.820 Y50.497 E0.76646
G1 X146.286 Y50.497 E0.01678
G1 X163.542 Y67.753 E0.76646
G1 X163.008 Y67.753 E0.01678
G1 X145.752 Y50.497 E0.76646
G1 X145.217 Y50.497 E0.01678
G1 X162.474 Y67.753 E0.76646
G1 X162.280 Y67.753 E0.00608
G1 X162.280 Y67.565 E0.00592
G1 X161.751 Y67.565 E0.01662
G1 X144.683 Y50.497 E0.75809
G1 X144.149 Y50.497 E0.01678
G1 X161.405 Y67.753 E0.76646
G1 X160.871 Y67.753 E0.01678
G1 X143.615 Y50.497 E0.76646
G1 X143.081 Y50.497 E0.01678
G1 X160.337 Y67.753 E0.76646
G1 X159.803 Y67.753 E0.01678
G1 X142.547 Y50.497 E0.76646
G1 X142.012 Y50.497 E0.01678
G1 X159.268 Y67.753 E0.76646
G1 X158.734 Y67.753 E0.01678
G1 X141.478 Y50.497 E0.76646
G1 X140.944 Y50.497 E0.01678
G1 X158.200 Y67.753 E0.76646
G1 X157.666 Y67.753 E0.01678
G1 X140.410 Y50.497 E0.76646
G1 X139.876 Y50.497 E0.01678
G1 X157.132 Y67.753 E0.76646
G1 X156.598 Y67.753 E0.01678
G1 X139.341 Y50.497 E0.76646
G1 X138.807 Y50.497 E0.01678
G1 X156.063 Y67.753 E0.76646
G1 X155.529 Y67.753 E0.01678
G1 X138.273 Y50.497 E0.76646
G1 X137.739 Y50.497 E0.01678
G1 X154.995 Y67.753 E0.76646
G1 X154.461 Y67.753 E0.01678
