; generated by Slic3r 1.37.1-prusa3d on 2018-04-28 at 20:17:27

; 

; external perimeters extrusion width = 0.45mm
; perimeters extrusion width = 0.45mm
; infill extrusion width = 0.45mm
; solid infill extrusion width = 0.45mm
; top infill extrusion width = 0.40mm
; first layer extrusion width = 0.42mm

M107
M115 U3.0.9 ; tell printer latest fw version
M83  ; extruder relative mode
M104 S215 ; set extruder temp
M140 S55 ; set bed temp
M190 S55 ; wait for bed temp
M109 S215 ; wait for extruder temp
G28 W ; home all without mesh bed level
G80 ; mesh bed leveling
G1 Y-3.0 F1000.0 ; go outside pritn area
G1 X60.0 E9.0  F1000.0 ; intro line
G1 X100.0 E12.5  F1000.0 ; intro line
; Filament gcode

G21 ; set units to millimeters
G90 ; use absolute coordinates
M83 ; use relative distances for extrusion
G1 E-0.80000 F2100.00000
G1 Z0.200 F7200.000
G1 X86.161 Y18.823 F7200.000
G1 E0.80000 F2100.00000
M204 S1000
G1 F2100
G1 X86.513 Y18.242 E0.02130
G1 X87.018 Y17.781 E0.02142
G1 X87.633 Y17.484 E0.02142
G1 X88.303 Y17.373 E0.02130
G1 X161.654 Y17.373 E2.29986
G1 X162.552 Y17.551 E0.02872
G1 X163.320 Y18.058 E0.02884
G1 X163.837 Y18.819 E0.02884
G1 X164.027 Y19.718 E0.02884
G1 X164.027 Y190.254 E5.34702
G1 X163.839 Y191.177 E0.02954
G1 X163.485 Y191.761 E0.02142
G1 X162.979 Y192.221 E0.02142
G1 X162.364 Y192.517 E0.02142
G1 X161.689 Y192.627 E0.02142
G1 X88.342 Y192.627 E2.29974
G1 X87.423 Y192.439 E0.02942
G1 X86.836 Y192.082 E0.02154
G1 X86.373 Y191.570 E0.02166
G1 X86.077 Y190.945 E0.02166
G1 X85.973 Y190.266 E0.02154
G1 X85.973 Y19.746 E5.34654
G1 X86.149 Y18.882 E0.02766
G1 F5760
G1 X86.513 Y18.242 E-0.25501
G1 F5760
G1 X87.018 Y17.781 E-0.23665
G1 F5760
G1 X87.633 Y17.484 E-0.23665
G1 F5760
G1 X87.723 Y17.469 E-0.03170
G1 E-0.04000 F2100.00000
G1 X119.136 Y113.036 F7200.000
G1 E0.80000 F2100.00000
G1 F1680
G1 X130.864 Y113.036 E0.36773
G1 X130.864 Y141.214 E0.88351
G1 X119.136 Y141.214 E0.36773
G1 X119.136 Y113.096 E0.88163
G1 X119.513 Y113.413 F7200.000
G1 F1680
G1 X130.487 Y113.413 E0.34409
G1 X130.487 Y140.837 E0.85987
G1 X119.513 Y140.837 E0.34409
G1 X119.513 Y113.473 E0.85798
G1 X119.890 Y113.790 F7200.000
G1 F1260
G1 X130.110 Y113.790 E0.32044
G1 X130.110 Y140.460 E0.83622
G1 X119.890 Y140.460 E0.32044
G1 X119.890 Y113.850 E0.83434
G1 X119.841 Y113.393 F7200.000
G1 F5760
G1 X122.084 Y113.837 E-0.76000
G1 E-0.04000 F2100.00000
G1 X119.136 Y68.036 F7200.000
G1 E0.80000 F2100.00000
G1 F1680
G1 X130.864 Y68.036 E0.36773
G1 X130.864 Y96.964 E0.90703
G1 X119.136 Y96.964 E0.36773
G1 X119.136 Y68.096 E0.90515
G1 X119.513 Y68.413 F7200.000
G1 F1680
G1 X130.487 Y68.413 E0.34409
G1 X130.487 Y96.587 E0.88338
G1 X119.513 Y96.587 E0.34409
G1 X119.513 Y68.473 E0.88150
G1 X119.890 Y68.790 F7200.000
G1 F1260
G1 X130.110 Y68.790 E0.32044
G1 X130.110 Y96.210 E0.85973
G1 X119.890 Y96.210 E0.32044
G1 X119.890 Y68.850 E0.85785
G1 X119.843 Y68.393 F7200.000
G1 F5760
G1 X122.084 Y68.837 E-0.76000
G1 E-0.04000 F2100.00000
G1 X108.255 Y33.778 F7200.000
G1 E0.80000 F2100.00000
G1 F1680
G1 X108.040 Y33.980 E0.00925
G1 X107.720 Y34.161 E0.01154
G1 X107.381 Y34.263 E0.01110
G1 X107.033 Y34.288 E0.01092
G1 X106.690 Y34.238 E0.01086
G1 X106.362 Y34.113 E0.01101
G1 X106.063 Y33.915 E0.01126
G1 X105.849 Y33.688 E0.00977
G1 X104.691 Y32.128 E0.06091
G1 X103.506 Y33.699 E0.06170
G1 X103.291 Y33.924 E0.00975
G1 X102.992 Y34.118 E0.01119
G1 X102.664 Y34.240 E0.01096
G1 X102.321 Y34.287 E0.01087
G1 X101.972 Y34.259 E0.01097
G1 X101.631 Y34.152 E0.01121
G1 X101.436 Y34.037 E0.00710
G1 X101.300 Y34.124 E0.00505
G1 X100.963 Y34.246 E0.01123
G1 X100.654 Y34.282 E0.00976
G1 X95.453 Y34.282 E0.16310
G1 X95.144 Y34.246 E0.00976
G1 X94.807 Y34.124 E0.01123
G1 X94.512 Y33.936 E0.01097
G1 X94.267 Y33.690 E0.01089
G1 X94.078 Y33.395 E0.01096
G1 X93.957 Y33.059 E0.01122
G1 X93.914 Y32.694 E0.01151
G1 X93.957 Y32.329 E0.01151
G1 X94.078 Y31.992 E0.01123
G1 X94.267 Y31.697 E0.01098
G1 X94.512 Y31.452 E0.01089
G1 X94.807 Y31.263 E0.01097
G1 X95.144 Y31.142 E0.01123
G1 X95.453 Y31.106 E0.00975
G1 X96.466 Y31.106 E0.03176
G1 X96.466 Y26.206 E0.15363
G1 X96.502 Y25.897 E0.00974
G1 X96.623 Y25.560 E0.01123
G1 X96.812 Y25.265 E0.01098
G1 X97.057 Y25.020 E0.01089
G1 X97.352 Y24.832 E0.01097
G1 X97.689 Y24.710 E0.01123
G1 X98.054 Y24.667 E0.01152
G1 X98.419 Y24.710 E0.01151
G1 X98.756 Y24.831 E0.01123
G1 X99.051 Y25.020 E0.01098
G1 X99.296 Y25.265 E0.01089
G1 X99.485 Y25.560 E0.01098
G1 X99.606 Y25.897 E0.01123
G1 X99.642 Y26.206 E0.00974
G1 X99.642 Y31.106 E0.15363
G1 X100.654 Y31.106 E0.03173
G1 X100.963 Y31.142 E0.00975
G1 X101.346 Y31.293 E0.01293
G1 X102.716 Y29.472 E0.07145
G1 X100.999 Y27.170 E0.09008
G1 X100.843 Y26.901 E0.00972
G1 X100.739 Y26.561 E0.01116
G1 X100.711 Y26.212 E0.01098
G1 X100.760 Y25.866 E0.01095
G1 X100.884 Y25.536 E0.01105
G1 X101.083 Y25.236 E0.01128
G1 X101.351 Y24.984 E0.01153
G1 X101.667 Y24.801 E0.01146
G1 X102.007 Y24.696 E0.01115
G1 X102.359 Y24.669 E0.01106
G1 X102.707 Y24.720 E0.01104
G1 X103.037 Y24.848 E0.01110
G1 X103.334 Y25.048 E0.01123
G1 X103.544 Y25.274 E0.00968
G1 X104.706 Y26.833 E0.06095
G1 X105.886 Y25.264 E0.06158
G1 X106.101 Y25.039 E0.00975
G1 X106.399 Y24.842 E0.01120
G1 X106.729 Y24.717 E0.01106
G1 X107.077 Y24.669 E0.01104
G1 X107.431 Y24.700 E0.01113
G1 X107.775 Y24.812 E0.01134
G1 X108.083 Y25.000 E0.01132
G1 X108.296 Y25.204 E0.00926
G1 X108.471 Y25.026 E0.00783
G1 X108.769 Y24.833 E0.01113
G1 X109.109 Y24.710 E0.01133
G1 X109.478 Y24.667 E0.01165
G1 X109.836 Y24.710 E0.01132
G1 X110.025 Y24.779 E0.00630
G1 X110.392 Y24.677 E0.01192
G1 X111.105 Y24.592 E0.02253
G1 X112.015 Y24.693 E0.02870
G1 X112.831 Y24.992 E0.02725
G1 X113.531 Y25.467 E0.02652
G1 X114.089 Y26.087 E0.02616
G1 X114.493 Y26.816 E0.02612
G1 X114.737 Y27.623 E0.02644
G1 X114.771 Y27.986 E0.01142
G1 X114.865 Y27.986 E0.00296
G1 X114.818 Y28.486 E0.01575
G1 X114.877 Y29.114 E0.01978
G1 X114.759 Y29.114 E0.00372
G1 X114.737 Y29.348 E0.00735
G1 X114.493 Y30.155 E0.02643
G1 X114.088 Y30.882 E0.02611
G1 X113.529 Y31.499 E0.02612
G1 X112.828 Y31.972 E0.02648
G1 X112.014 Y32.268 E0.02718
G1 X111.059 Y32.361 E0.03008
G1 X111.059 Y32.815 E0.01423
G1 X111.024 Y33.122 E0.00967
G1 X110.904 Y33.457 E0.01116
G1 X110.718 Y33.752 E0.01093
G1 X110.473 Y33.998 E0.01087
G1 X110.179 Y34.188 E0.01099
G1 X109.841 Y34.310 E0.01126
G1 X109.476 Y34.353 E0.01151
G1 X109.111 Y34.310 E0.01153
G1 X108.773 Y34.189 E0.01126
G1 X108.476 Y34.000 E0.01104
G1 X108.297 Y33.820 E0.00794
G1 X108.279 Y32.916 F7200.000
G1 F1680
G1 X108.267 Y33.000 E0.00268
G1 X108.172 Y33.252 E0.00842
G1 X108.021 Y33.480 E0.00859
G1 X107.815 Y33.674 E0.00888
G1 X107.571 Y33.812 E0.00878
G1 X107.312 Y33.890 E0.00847
G1 X107.047 Y33.909 E0.00834
G1 X106.785 Y33.870 E0.00829
G1 X106.535 Y33.776 E0.00839
G1 X106.308 Y33.625 E0.00857
G1 X106.139 Y33.445 E0.00771
G1 X104.694 Y31.499 E0.07602
G1 X103.219 Y33.454 E0.07680
G1 X103.049 Y33.631 E0.00769
G1 X102.821 Y33.779 E0.00851
G1 X102.572 Y33.872 E0.00835
G1 X102.310 Y33.908 E0.00829
G1 X102.044 Y33.887 E0.00836
G1 X101.785 Y33.806 E0.00852
G1 X101.547 Y33.665 E0.00868
G1 X101.437 Y33.561 E0.00475
G1 X101.357 Y33.640 E0.00352
G1 X101.132 Y33.784 E0.00837
G1 X100.876 Y33.876 E0.00855
G1 X100.632 Y33.905 E0.00770
G1 X95.475 Y33.905 E0.16171
G1 X95.231 Y33.876 E0.00770
G1 X94.975 Y33.784 E0.00855
G1 X94.750 Y33.640 E0.00837
G1 X94.562 Y33.452 E0.00831
G1 X94.419 Y33.228 E0.00836
G1 X94.326 Y32.972 E0.00854
G1 X94.294 Y32.694 E0.00876
G1 X94.326 Y32.416 E0.00877
G1 X94.419 Y32.160 E0.00855
G1 X94.563 Y31.935 E0.00837
G1 X94.750 Y31.748 E0.00831
G1 X94.975 Y31.604 E0.00837
G1 X95.231 Y31.511 E0.00855
G1 X95.475 Y31.483 E0.00769
G1 X96.843 Y31.483 E0.04289
G1 X96.843 Y26.228 E0.16477
G1 X96.871 Y25.984 E0.00769
G1 X96.964 Y25.728 E0.00855
G1 X97.108 Y25.503 E0.00837
G1 X97.295 Y25.316 E0.00831
G1 X97.520 Y25.172 E0.00837
G1 X97.776 Y25.079 E0.00855
G1 X98.054 Y25.047 E0.00877
G1 X98.332 Y25.079 E0.00876
G1 X98.588 Y25.172 E0.00855
G1 X98.813 Y25.316 E0.00837
G1 X99.000 Y25.503 E0.00831
G1 X99.144 Y25.728 E0.00837
G1 X99.237 Y25.984 E0.00855
G1 X99.265 Y26.228 E0.00769
G1 X99.265 Y31.483 E0.16477
G1 X100.632 Y31.483 E0.04286
G1 X100.876 Y31.511 E0.00769
G1 X101.132 Y31.604 E0.00855
G1 X101.357 Y31.748 E0.00837
G1 X101.425 Y31.816 E0.00302
G1 X103.188 Y29.473 E0.09190
G1 X101.314 Y26.962 E0.09825
G1 X101.191 Y26.749 E0.00770
G1 X101.111 Y26.490 E0.00851
G1 X101.090 Y26.223 E0.00838
G1 X101.128 Y25.960 E0.00835
G1 X101.222 Y25.709 E0.00841
G1 X101.373 Y25.481 E0.00858
G1 X101.577 Y25.289 E0.00879
G1 X101.820 Y25.149 E0.00876
G1 X102.078 Y25.069 E0.00850
G1 X102.346 Y25.048 E0.00841
G1 X102.610 Y25.087 E0.00838
G1 X102.861 Y25.184 E0.00843
G1 X103.087 Y25.337 E0.00855
G1 X103.255 Y25.516 E0.00769
G1 X104.704 Y27.462 E0.07609
G1 X106.174 Y25.508 E0.07668
G1 X106.344 Y25.330 E0.00772
G1 X106.571 Y25.180 E0.00853
G1 X106.822 Y25.085 E0.00841
G1 X107.087 Y25.048 E0.00839
G1 X107.355 Y25.071 E0.00844
G1 X107.616 Y25.156 E0.00860
G1 X107.851 Y25.300 E0.00865
G1 X108.050 Y25.491 E0.00863
G1 X108.199 Y25.717 E0.00850
G1 X108.296 Y25.985 E0.00892
G1 X108.382 Y25.739 E0.00816
G1 X108.524 Y25.511 E0.00842
G1 X108.711 Y25.320 E0.00838
G1 X108.938 Y25.173 E0.00847
G1 X109.196 Y25.080 E0.00862
G1 X109.477 Y25.047 E0.00887
G1 X109.749 Y25.080 E0.00858
G1 X110.009 Y25.174 E0.00869
G1 X110.465 Y25.048 E0.01482
G1 X111.107 Y24.971 E0.02027
G1 X111.928 Y25.063 E0.02590
G1 X112.658 Y25.330 E0.02437
G1 X113.281 Y25.754 E0.02363
G1 X113.780 Y26.307 E0.02337
G1 X114.144 Y26.963 E0.02351
G1 X114.365 Y27.696 E0.02400
G1 X114.428 Y28.363 E0.02100
G1 X114.451 Y28.363 E0.00073
G1 X114.439 Y28.486 E0.00388
G1 X114.463 Y28.737 E0.00791
G1 X114.416 Y28.737 E0.00149
G1 X114.365 Y29.275 E0.01693
G1 X114.144 Y30.007 E0.02398
G1 X113.780 Y30.661 E0.02348
G1 X113.280 Y31.212 E0.02333
G1 X112.656 Y31.633 E0.02359
G1 X111.927 Y31.898 E0.02432
G1 X111.118 Y31.988 E0.02553
G1 X110.682 Y31.945 E0.01375
G1 X110.682 Y32.794 E0.02663
G1 X110.654 Y33.036 E0.00763
G1 X110.563 Y33.291 E0.00849
G1 X110.421 Y33.515 E0.00833
G1 X110.235 Y33.703 E0.00829
G1 X110.010 Y33.848 E0.00837
G1 X109.754 Y33.941 E0.00856
G1 X109.476 Y33.973 E0.00876
G1 X109.197 Y33.941 E0.00880
G1 X108.940 Y33.849 E0.00857
G1 X108.714 Y33.704 E0.00841
G1 X108.527 Y33.516 E0.00831
G1 X108.384 Y33.291 E0.00836
G1 X108.286 Y32.975 E0.01038
G1 F5760
G1 X108.267 Y33.000 E-0.01089
G1 F5760
G1 X108.172 Y33.252 E-0.09300
G1 F5760
G1 X108.021 Y33.480 E-0.09485
G1 F5760
G1 X107.815 Y33.674 E-0.09806
G1 F5760
G1 X107.571 Y33.812 E-0.09704
G1 F5760
G1 X107.312 Y33.890 E-0.09355
G1 F5760
G1 X107.047 Y33.909 E-0.09208
G1 F5760
G1 X106.785 Y33.870 E-0.09157
G1 F5760
G1 X106.545 Y33.779 E-0.08897
G1 E-0.04000 F2100.00000
G1 X108.642 Y28.740 F7200.000
G1 E0.80000 F2100.00000
G1 F840
G1 X110.305 Y28.740 E0.05214
G1 X110.305 Y29.794 E0.03304
G1 X110.597 Y29.876 E0.00952
G1 X111.111 Y29.944 E0.01626
G1 X111.458 Y29.906 E0.01092
G1 X111.741 Y29.800 E0.00947
G1 X111.970 Y29.637 E0.00884
G1 X112.152 Y29.419 E0.00888
G1 X112.285 Y29.151 E0.00940
G1 X112.393 Y28.740 E0.01331
G1 X114.037 Y28.740 E0.05153
G1 X113.993 Y29.202 E0.01454
G1 X113.794 Y29.859 E0.02153
G1 X113.471 Y30.440 E0.02085
G1 X113.031 Y30.925 E0.02054
G1 X112.484 Y31.295 E0.02071
G1 X111.841 Y31.528 E0.02145
G1 X111.116 Y31.609 E0.02286
G1 X110.643 Y31.562 E0.01491
G1 X110.305 Y31.480 E0.01090
G1 X110.305 Y32.772 E0.04052
G1 X110.284 Y32.949 E0.00560
G1 X110.222 Y33.125 E0.00583
G1 X110.124 Y33.279 E0.00573
G1 X109.996 Y33.408 E0.00571
G1 X109.842 Y33.508 E0.00575
G1 X109.666 Y33.571 E0.00585
G1 X109.476 Y33.593 E0.00601
G1 X109.284 Y33.571 E0.00606
G1 X109.107 Y33.508 E0.00588
G1 X108.952 Y33.409 E0.00578
G1 X108.823 Y33.279 E0.00572
G1 X108.725 Y33.125 E0.00575
G1 X108.662 Y32.950 E0.00583
G1 X108.642 Y32.772 E0.00560
G1 X108.642 Y28.800 E0.12454
G1 X108.641 Y28.340 F7200.000
G1 X108.642 Y28.360 F7200.000
G1 F840
G1 X108.642 Y26.261 E0.06581
G1 X108.662 Y26.080 E0.00570
G1 X108.724 Y25.902 E0.00591
G1 X108.822 Y25.745 E0.00581
G1 X108.951 Y25.614 E0.00577
G1 X109.106 Y25.513 E0.00581
G1 X109.283 Y25.449 E0.00590
G1 X109.476 Y25.427 E0.00609
G1 X109.661 Y25.449 E0.00584
G1 X109.835 Y25.512 E0.00581
G1 X109.942 Y25.584 E0.00405
G1 X110.538 Y25.419 E0.01938
G1 X111.108 Y25.351 E0.01802
G1 X111.841 Y25.432 E0.02311
G1 X112.484 Y25.668 E0.02149
G1 X113.032 Y26.040 E0.02075
G1 X113.471 Y26.528 E0.02059
G1 X113.794 Y27.111 E0.02089
G1 X113.993 Y27.769 E0.02156
G1 X114.049 Y28.360 E0.01862
G1 X112.414 Y28.360 E0.05125
G1 X112.284 Y27.820 E0.01743
G1 X112.152 Y27.554 E0.00929
G1 X111.971 Y27.338 E0.00885
G1 X111.741 Y27.175 E0.00883
G1 X111.458 Y27.070 E0.00947
G1 X111.111 Y27.032 E0.01093
G1 X110.597 Y27.101 E0.01627
G1 X110.305 Y27.182 E0.00952
G1 X110.305 Y28.360 E0.03692
G1 X108.702 Y28.360 E0.05026
G1 X108.250 Y28.442 F7200.000
G1 F5760
G1 X108.642 Y26.261 E-0.72722
G1 F5760
G1 X108.652 Y26.167 E-0.03278
G1 E-0.04000 F2100.00000
G1 X105.735 Y29.481 F7200.000
G1 E0.80000 F2100.00000
G1 F840
G1 X107.765 Y32.207 E0.10656
G1 X107.855 Y32.363 E0.00565
G1 X107.910 Y32.542 E0.00587
G1 X107.925 Y32.725 E0.00577
G1 X107.899 Y32.907 E0.00574
G1 X107.834 Y33.079 E0.00578
G1 X107.731 Y33.235 E0.00588
G1 X107.590 Y33.368 E0.00608
G1 X107.422 Y33.463 E0.00603
G1 X107.244 Y33.516 E0.00584
G1 X107.061 Y33.529 E0.00575
G1 X106.880 Y33.503 E0.00572
G1 X106.709 Y33.438 E0.00576
G1 X106.553 Y33.335 E0.00587
G1 X106.429 Y33.203 E0.00566
G1 X104.696 Y30.869 E0.09114
G1 X102.931 Y33.209 E0.09189
G1 X102.807 Y33.339 E0.00563
G1 X102.651 Y33.441 E0.00584
G1 X102.479 Y33.504 E0.00574
G1 X102.299 Y33.529 E0.00570
G1 X102.117 Y33.514 E0.00574
G1 X101.939 Y33.459 E0.00584
G1 X101.775 Y33.362 E0.00598
G1 X101.636 Y33.230 E0.00602
G1 X101.532 Y33.074 E0.00587
G1 X101.468 Y32.902 E0.00576
G1 X101.442 Y32.721 E0.00572
G1 X101.456 Y32.538 E0.00575
G1 X101.512 Y32.360 E0.00585
G1 X101.603 Y32.206 E0.00561
G1 X103.659 Y29.474 E0.10719
G1 X101.629 Y26.754 E0.10642
G1 X101.539 Y26.597 E0.00567
G1 X101.484 Y26.419 E0.00587
G1 X101.469 Y26.235 E0.00577
G1 X101.495 Y26.054 E0.00574
G1 X101.560 Y25.882 E0.00577
G1 X101.664 Y25.725 E0.00588
G1 X101.804 Y25.593 E0.00604
G1 X101.972 Y25.497 E0.00607
G1 X102.150 Y25.441 E0.00585
G1 X102.333 Y25.427 E0.00576
G1 X102.514 Y25.454 E0.00573
G1 X102.685 Y25.520 E0.00577
G1 X102.840 Y25.625 E0.00588
G1 X102.965 Y25.758 E0.00570
G1 X104.703 Y28.092 E0.09123
G1 X106.463 Y25.752 E0.09179
G1 X106.588 Y25.621 E0.00569
G1 X106.744 Y25.517 E0.00587
G1 X106.916 Y25.453 E0.00576
G1 X107.097 Y25.427 E0.00573
G1 X107.280 Y25.443 E0.00576
G1 X107.457 Y25.501 E0.00586
G1 X107.620 Y25.601 E0.00598
G1 X107.758 Y25.733 E0.00602
G1 X107.861 Y25.890 E0.00586
G1 X107.926 Y26.061 E0.00576
G1 X107.952 Y26.242 E0.00571
G1 X107.937 Y26.424 E0.00573
G1 X107.882 Y26.601 E0.00583
G1 X107.791 Y26.755 E0.00560
G1 X106.581 Y28.360 E0.06303
G1 X106.560 Y28.360 E0.00065
G1 X106.560 Y28.387 E0.00086
G1 X105.772 Y29.433 E0.04106
G1 X106.117 Y29.602 F7200.000
G1 F5760
G1 X107.052 Y31.215 E-0.76000
G1 E-0.04000 F2100.00000
G1 X101.433 Y32.694 F7200.000
G1 E0.80000 F2100.00000
G1 F840
G1 X101.411 Y32.884 E0.00601
G1 X101.348 Y33.060 E0.00586
G1 X101.249 Y33.215 E0.00576
G1 X101.120 Y33.344 E0.00573
G1 X100.965 Y33.443 E0.00576
G1 X100.789 Y33.507 E0.00586
G1 X100.610 Y33.528 E0.00564
G1 X95.497 Y33.528 E0.16033
G1 X95.318 Y33.507 E0.00564
G1 X95.142 Y33.443 E0.00586
G1 X94.987 Y33.344 E0.00576
G1 X94.858 Y33.215 E0.00573
G1 X94.759 Y33.060 E0.00576
G1 X94.696 Y32.884 E0.00586
G1 X94.674 Y32.694 E0.00601
G1 X94.696 Y32.503 E0.00602
G1 X94.759 Y32.327 E0.00586
G1 X94.858 Y32.172 E0.00576
G1 X94.987 Y32.043 E0.00573
G1 X95.142 Y31.944 E0.00576
G1 X95.318 Y31.881 E0.00586
G1 X95.497 Y31.860 E0.00564
G1 X97.220 Y31.860 E0.05403
G1 X97.220 Y26.250 E0.17590
G1 X97.241 Y26.071 E0.00563
G1 X97.304 Y25.895 E0.00586
G1 X97.403 Y25.740 E0.00576
G1 X97.532 Y25.611 E0.00573
G1 X97.687 Y25.512 E0.00576
G1 X97.863 Y25.449 E0.00586
G1 X98.054 Y25.427 E0.00602
G1 X98.245 Y25.449 E0.00602
G1 X98.421 Y25.512 E0.00586
G1 X98.576 Y25.611 E0.00576
